X:152 
T:Miss Patterson's Slippers  (reel) 
T:Master Crowley's, Blue Bells
B:CRE3.180 (SlipÃÂÃÂÃÂÃÂ©ir InÃÂÃÂÃÂÃÂ­on Mhic PhÃÂÃÂÃÂÃÂ¡idin)
F:file ID: cre.3/152miss_p
N:Evidently "Mhic Phaidin" (= McFadden) was as close at the CRE
back-translation gurus could come to "Patterson" (= "Patrick's Son"?
"Peadar's {Peter's] son?"). Probably would have been better if the
editors hadn't tried so hard to "Irish-ize" the title!
R:reel
L:1/8
Q:180
M:C
K:Em
ED|B,EE2 B,EFE|EDA,D A,DFD|B,EE2 B,EFE|DFdF FEED|
B,EE2 B,EFE|EDA,D A,DFD|B,EE2 B,EFE|DFdF FE:|
|:EA|Bbba fgeg|fdd2 fdad|Bbba fgfe|dBAc BEED|
Bbba fgeg|fdd2 fdad|EFGA B3d|1 AFDE FE:|\
[2 AFDE FDDF| HE8 |]

%%%

